X:1
T:Introduction
T:Introduction
T:Die Frau ohne Schatten Act 1
T:Richard Strauss
C:Richard Strauss
%%score 1 2 { ( 3 4 ) ( 5 6 ) }
L:1/8
Q:1/4=60
M:4/4
K:Ab
V:1 treble nm="Die Amme" snm="A."
V:2 bass nm="Der Bote" snm="B."
V:3 treble nm="Piano" snm="Pno."
V:4 treble 
V:5 bass nm="Piano"
V:6 bass 
V:1
"^Langsam und schwer" z8 | z8 | z8 | z8 | z8 ||[M:2/2][Q:1/2=60]"^dobbelt so schnell" z8 | z8 | %7
w: |||||||
 z4 f2 A B | c4 z2 z c | =d2- (3d =B ^F =e4 | c c/ c/ f G z c (3c =D =E | %11
w: Licht ü- ber'm|See ein|flie- * ßen- der Glanz|schnell wie ein Vo- gel! Die Wip- fel der|
 F3/2 G/ (3=e =E ^G =B2 z2 | (3z _f f (3:2:2a2 B (3:2:2_c2 d (3e F G | A8 | z2 E2 __B,3 B, || %15
w: Nacht von o- ben er- hellt|ei- ne Feu- er- hand will fas- sen nach|mir|Bist du es,|
[M:3/2] _C4 z4 z4 ||[M:2/2]{/A} __B,2 B, __B{/_B} _C2 C z | z D D D{/_c} =D2 D z | E2 =d E F2 e F | %19
w: Herr?|Sie- he, ich wa- che|bei dei- nem Kin- de|nächt- lich in Sor- ge und|
{/A} _G8 | z8 | z8 | z8 | z8 | z8 | z8 | z8 | z8 | z8 | z8 | z8 | z8 | z8 | z8 || %34
w: Pein!|||||||||||||||
[M:3/2] z2 (3f G A F3/2 A/ c2 z4 ||[M:2/2] z8 | z8 ||[M:3/2] z12 ||[M:3/4] z6 | z6 | z6 | z6 |] %42
w: Dich hab ich nie ge- sehn!||||||||
V:2
 z8 | z8 | z8 | z8 | z8 ||[M:2/2] z8 | z8 | z8 | z8 | z8 | z8 | z8 | z8 | z8 | z8 ||[M:3/2] z12 || %16
w: ||||||||||||||||
[M:2/2] z8 | z8 | z8 | z8 | z8 | z4 E,2 F, E, | D2 E,2 z4 | !>!A,3/2 !>!_F,/ !>!E,2 _C2 (3A, B, C | %24
w: |||||Nicht der Ge|bie- ter,|Kei- ko- bad nicht, a- ber sein|
 B,2 F,2 z4 | z4 z2 G, G, | A,4 F, F, G,2 | A,3/2 C/ B,2 z2 G,2 | A,2 A, A, =A,3 A, | %29
w: Bo- te!|Ih- rer|elf ha- ben dich|heim- ge- sucht, ein|neu- er mit je- dem|
 =B,2 B, ^C ^D4 | z2 D2 =E3 C | =A,2 =B,, C, =A,,2 z A, | C3 C D4- | D2 _F,2 =G,3 A, || %34
w: schwin- den- den Mond.|Der zwölf- te|Mond ist hin- ab: der|zwölf- te Bo-|* te steht vor|
[M:3/2] F,4 z4 z2 =E,2 ||[M:2/2] F,2 z F, G,3 G, | A,3/2 B,/ C2 z4 || %37
w: dir. Ge-|nug: ich kam und|fra- ge dich:|
[M:3/2] z2 C,2 z2 C,2 z2 C, C, ||[M:3/4] F,2 B, z z2 | z6 | z6 | z6 |] %42
w: wirft sie ei- nen|Schat- ten?||||
V:3
!ff! ([E,E]8- | [E,E]4- [E,E]4- | [E,E]7/2!p!!<(! !>![=F,=F]/ [_G,_G]4-!<)! | %3
 [G,G]!mp!=D/>!mp!!>![=A,=A]/!mp! [B,B]4 _D>!mp!!>![=D=d] | %4
!mp! [Ee]3) (C/4=D/4E/4F/4 (3_GBe!>(! (3_gbe')!>)! ||[M:2/2]!pp! [_g_g']8 | %6
 z2!f! !>![c'c'']2 !>![=d=d']2 !>![=e=e']2 |{/c'} ([ff']3!>(! [gg']!>)!!p! [ff']4) | %8
 z4!pp! !>![c'c'']4 | !>![=d^f=b=d']4 !>![=e=a^c'=e']4 |!pp!({/=c'} [ff']3 [gg'] [ff']4) | %11
 z2!mf! (T=e2 T=b2 T=e'2) | ^g' z!f! ([_a_a']2 (3b_c'd (3e!<(!FG!<)! | %13
!ff! A>)_F E2"_dim." !//-!E2 E,2 |!p! !//-!E2 E,2 !//-!E2 E,2 || %15
[M:3/2] !//-!E2 E,2!p! !//-!E2 E,2 !//-!E2 E,2 ||[M:2/2] !//-!E2 E,2 !//-!E2 E,2 | %17
 !//-!_G2 _G,2 z2 (3(=A=de | [=d=d']2 (3e_G_c B2- (3B=DF |!mf! _G8) |!f! e2 [ee']2 [Ff]2 [=G=g]2 | %21
{/c} ([Ee]3 [Ff] [Ee]4) |!p! !//-!E2 E,2!mf! [E,A,_CE] z z2 | z8 | %24
 z2!p! ([bb']2 [ff']2!<(! [Bb]2!<)! |!mp! [Cc]2 [=D=d]2 [B,B]3!>(! [Cc]!>)! | %26
!p! [B,B]) z!p! ([bb']2 [ff']2!<(! [Bb]2!<)! |!mp! [Cc]2 [=D=d]2 [B,B]3!<(! [Cc]!<)! | %28
!mf! [B,B]) .[A,B,]z.[B,=D] =B4- | =B z!p! ([=b=b']2 [^f^f']2!<(! [Bb]2!<)! | %30
!mp! ^c2 ^d2!pp! [=E=e]4- | [Ee][Ff] [=E=e]) z z4 |!p! ([F,=A,C]4 [_F,_A,D]4- | %33
 [F,A,D]4"_dim." [G,B,=E]4 ||[M:3/2]!pp! [A,CF]4) z2!p! [cc']2 [^F=B=d]2 [=A^c=e]2 || %35
[M:2/2] [F_A=cf]4 [=EG]4 | ([FA]>[GB] [Ac])!>(! z!>)! z4 ||[M:3/2] z12 || %38
[M:3/4] z2 z2!pp! [B,DFB]2- | [B,DFB]2 (F2 B>c |!>(! f2 b)!>)! z z2 | z6 |] %42
V:4
 [A,_C] x7 | [A,_C] x7 | [A,_C] x7 | x8 | x4 _G2 _g2 ||[M:2/2] x8 | x8 | x8 | x8 | x8 | x8 | x8 | %12
 x8 | x8 | x8 ||[M:3/2] (_C4 C4) x4 ||[M:2/2] x8 | x4 =G4 | x8 | %19
 [B,E] z"_cresc." z2 =D/>!mf!!>!=A/!mf!B- (3B!mf!_D=d | x8 | c4 d4 | x8 | x8 | x8 | x4{/G-} G4 | %26
 A x7 | x4{/G-} G4 | A x3 z .[=B,^D]z.[D^F] | x6 z .[^d^f] | [=A=B]4{/=c-} c4- | c2 x6 | x8 | x8 || %34
[M:3/2] x12 ||[M:2/2] x4 C4- | C2 x6 ||[M:3/2] x12 ||[M:3/4] x6 | x6 | x6 | x6 |] %42
V:5
!ff! [A,,,A,,]>[_F,,,_F,,] [E,,,D,,]2 z4 | [A,,,A,,]>[_F,,,_F,,] [E,,,D,,]2 z4 | %2
 [A,,,A,,]>[_F,,,_F,,] [E,,,D,,]2!p!!<(! (_G,,4- | %3
 G,,!<)!!mp![=D,,=D,]/>!mp!!>!=A,,/!mp! B,,4 [_D,,_D,]>!mp!!>!=D, | %4
!mp! E,3) (C,/4=D,/4E,/4F,/4 (3_G,B,E[K:treble]!>(! (3_GBe)!>)! ||[M:2/2]!pp! z2!f! !//-!a3 a'3 | %6
!p! !//-!a2 a'2 !//-!a2 a'2 | !//-!a2 a'2 !//-!a2 a'2 | !//-!a2 a'2 z (a/g/ _g/f/=e/_e/) | %9
 z (=d/^c/(3=c=B_B =A)(A/^G/ A/G/=G/^F/) | [=F_A=c]6[K:bass]!mf! (3(C=D,=E, | %11
 F,>G, ^G,2- (3G,).=B,.=E[K:treble] (3.^G.=B.=e | %12
 ^g z z[K:bass]!ff! [_E,_A,_C_E][K:treble] (3(B_cD (3E[K:bass]F,G,) | %13
 [A,,A,]>[_F,,_F,] [E,,E,]2 z4 | z4!p! ([__B,,,__B,,]4 || %15
[M:3/2] [_C,,_C,]4)!ff! [A,,,A,,]>[_F,,,_F,,] [E,,,E,,]2 z4 || %16
[M:2/2]!pp! ([__B,,,__B,,]4 [_C,,_C,]4 | [D,,D,]4 [=D,,=D,]4) | %18
!p! !arpeggio![_C,E,_G,_C] z z2 !arpeggio![B,,F,A,=D] z z2 | %19
!mf! (E,>!mf!!>!F,!mf!"_cresc." _G,2 =D,/>!mf!!>!=A,/!mf!B,- (3B,!mf!_D,=D |!f! [E,E]6) x2 | %21
 ([=A,,_G,E]4 [B,,=G,F]4) | z4!mf! [A,,,A,,]>[_F,,,_F,,] [E,,,E,,]2 | z4 z2 z!p! .[_G,,A,,_C,E,] | %24
 z .[F,,A,,B,,=D,]z.[_G,,A,,_C,E,] z .[F,,A,,B,,D,]z.[=G,,B,,=C,E,] | %25
!mp! z .[A,,C,=D,F,]z.[B,,F,A,] ([=E,,_D,]4 | %26
!p! [F,,=D,]) .[F,,A,,B,,D,]z.[G,,A,,C,E,] z .[F,,A,,B,,D,]z.[B,,C,E,G,] | %27
!mp! z .[A,,B,,=D,F,]z.[C,F,A,]!<(! ([=E,,_D,]4!<)! | %28
!mf! [F,,=D,]) .[F,,D,]z.[A,,F,] z .[=A,,^F,]z.[=B,,=A,] | %29
 z[K:treble]!p! .[^D=A=B]z.[=EA^c] z .[^FB^d]z.A |!mp! (^C2 ^D2)[K:bass]!pp! [=A,,=A,]4- | %31
 [A,,A,]=A,, .=B,,,.C,, .[=A,,,A,,]2 .[G,,,G,,].[A,,,A,,] |!p! [F,,,F,,]2 z2 ([D,,D,]4- | %33
 [D,,D,]4"_dim." [C,,C,]4 ||[M:3/2]!pp! [F,,,F,,]4) z4!p! [=B,=D]2 [=A,=E]2 ||[M:2/2] F,4 C,4- | %36
 C,2 x F,,/4G,,/4A,,/4B,,/4!f! (6:4:6C,C,C,C,C,C, || %37
[M:3/2] (6:4:6C,C,C,C,C,C, (6:4:6C,C,C,C,C,C, (6:4:6C,C,C,C,C,C, ||[M:3/4]!p! C,C, (C,,2 F,,>B,, | %39
 C,2 F,2 B,>C |[K:treble] F2 B) z z2 | z6 |] %42
V:6
 x8 | x8 | x8 | x8 | x6[K:treble] x2 ||[M:2/2] x8 | x8 | x8 | x8 | x8 | x6[K:bass] x2 | %11
 x6[K:treble] x2 | x3[K:bass] x[K:treble] x8/3[K:bass] x4/3 | x8 | x8 ||[M:3/2] x12 ||[M:2/2] x8 | %17
 x8 | x8 | E,,8 | x8 | x8 | x8 | x8 | x8 | x8 | x8 | x8 | x8 | x[K:treble] x7 | x4[K:bass] x4 | %31
 x8 | x8 | x8 ||[M:3/2] x12 ||[M:2/2] x8 | F,,3- x5 ||[M:3/2] x12 ||[M:3/4] x4 F,,2 | F,,4- F,, z | %40
[K:treble] x6 | x6 |] %42

